X:1
T:Title
L:1/8
Q:1/4=60
M:2/4
I:linebreak $
K:G
V:1 treble nm="Klavír" snm="Kl."
V:1
"^Pomaly, zádumčivo" F2 F F | G2 F2 | E2 z2 | d2 c B | e A ^G F |$ F ^G A G | B2 (A2{/^D)} | 
w: Do- li- na,|do- li-|na,|ej, čo- že|ma je po nej,|keď sa mi ne-|pre- jde,|
E2 E =G | B ^A G2 | F2 z2 |]
w: ej, nič mi-|lé- ho po|nej.|
